actions/symbolic/distribute-vertical-bottom-symbolic.svg

<?xml version="1.0" encoding="UTF-8" standalone="no"?>
<svg
   xmlns:dc="http://purl.org/dc/elements/1.1/"
   xmlns:cc="http://creativecommons.org/ns#"
   xmlns:rdf="http://www.w3.org/1999/02/22-rdf-syntax-ns#"
   xmlns:svg="http://www.w3.org/2000/svg"
   xmlns="http://www.w3.org/2000/svg"
   xmlns:xlink="http://www.w3.org/1999/xlink"
   xmlns:sodipodi="http://sodipodi.sourceforge.net/DTD/sodipodi-0.dtd"
   xmlns:inkscape="http://www.inkscape.org/namespaces/inkscape"
   inkscape:version="1.0 (1.0+r73+1)"
   sodipodi:docname="distribute-vertical-bottom-symbolic.svg"
   height="16"
   width="16"
   version="1.1"
   id="svg57">
  <sodipodi:namedview
     inkscape:current-layer="svg57"
     inkscape:window-maximized="1"
     inkscape:window-y="30"
     inkscape:window-x="0"
     inkscape:cy="6.3212875"
     inkscape:cx="2.8261625"
     inkscape:zoom="38.9375"
     showgrid="false"
     id="namedview69"
     inkscape:window-height="1377"
     inkscape:window-width="2560"
     inkscape:pageshadow="2"
     inkscape:pageopacity="0"
     guidetolerance="10"
     gridtolerance="10"
     objecttolerance="10"
     borderopacity="1"
     bordercolor="#666666"
     pagecolor="#ffffff" />
  <metadata
     id="metadata63">
    <rdf:RDF>
      <cc:Work
         rdf:about="">
        <dc:format>image/svg+xml</dc:format>
        <dc:type
           rdf:resource="http://purl.org/dc/dcmitype/StillImage" />
        <dc:title></dc:title>
      </cc:Work>
    </rdf:RDF>
  </metadata>
  <defs
     id="defs61">
    <linearGradient
       id="linearGradient1085"
       gradientTransform="matrix(0.40540511,0,0,0.51351351,2.269687,-0.324319)"
       gradientUnits="userSpaceOnUse"
       x1="23.99999"
       x2="23.99999"
       y1="6.4736748"
       y2="41.526306">
      <stop
         offset="0"
         stop-color="#fff"
         id="stop1077" />
      <stop
         offset="0.00000048"
         stop-color="#fff"
         stop-opacity=".235294"
         id="stop1079" />
      <stop
         offset="1"
         stop-color="#fff"
         stop-opacity=".156863"
         id="stop1081" />
      <stop
         offset="1"
         stop-color="#fff"
         stop-opacity=".392157"
         id="stop1083" />
    </linearGradient>
    <linearGradient
       id="linearGradient1075"
       gradientTransform="matrix(0.40540511,0,0,0.51351351,2.269687,-0.324319)"
       gradientUnits="userSpaceOnUse"
       x1="23.99999"
       x2="23.99999"
       y1="6.4736748"
       y2="41.526306">
      <stop
         offset="0"
         stop-color="#fff"
         id="stop1067" />
      <stop
         offset="0"
         stop-color="#fff"
         stop-opacity=".235294"
         id="stop1069" />
      <stop
         offset="1"
         stop-color="#fff"
         stop-opacity=".156863"
         id="stop1071" />
      <stop
         offset="1"
         stop-color="#fff"
         stop-opacity=".392157"
         id="stop1073" />
    </linearGradient>
    <linearGradient
       id="linearGradient987">
      <stop
         style="stop-color:#cc3b02;stop-opacity:1;"
         offset="0"
         id="stop983" />
      <stop
         id="stop991"
         offset="0.875"
         style="stop-color:#cc3b02;stop-opacity:1" />
      <stop
         style="stop-color:#cc3b02;stop-opacity:0;"
         offset="1"
         id="stop985" />
    </linearGradient>
    <linearGradient
       y2="47.013336"
       y1="0.98520601"
       x2="25.132275"
       x1="25.132275"
       gradientUnits="userSpaceOnUse"
       gradientTransform="matrix(0.48571543,0,0,0.45629666,-34.78968,-5.734851)"
       id="linearGradient874">
      <stop
         id="stop870"
         stop-color="#f4f4f4"
         offset="0"
         style="stop-color:#fafafa;stop-opacity:1" />
      <stop
         id="stop872"
         stop-color="#dbdbdb"
         offset="1"
         style="stop-color:#d4d4d4;stop-opacity:1" />
    </linearGradient>
    <linearGradient
       xlink:href="#linearGradient874"
       id="linearGradient1061"
       gradientUnits="userSpaceOnUse"
       gradientTransform="matrix(0,-0.41666667,1.2857143,0,270.2857,-28.041616)"
       x1="-68.674088"
       y1="-203.99998"
       x2="-80.341354"
       y2="-203.99998" />
    <linearGradient
       xlink:href="#linearGradient1085"
       id="linearGradient1063"
       gradientUnits="userSpaceOnUse"
       gradientTransform="matrix(0,-0.30000002,1.3999916,0,293.59827,-19.349965)"
       x1="-71.166542"
       y1="-203.99998"
       x2="-77.833214"
       y2="-203.99998" />
    <linearGradient
       gradientTransform="matrix(0,1,-0.7965368,0,17.558441,2)"
       spreadMethod="reflect"
       gradientUnits="userSpaceOnUse"
       y2="1.9565217"
       x2="3.5515943"
       y1="12"
       x1="3.5515943"
       id="linearGradient953"
       xlink:href="#linearGradient951" />
    <linearGradient
       id="linearGradient951">
      <stop
         id="stop947"
         offset="0"
         style="stop-color:#ffa154;stop-opacity:1;" />
      <stop
         style="stop-color:#ffa154;stop-opacity:0.92647058"
         offset="0.875"
         id="stop955" />
      <stop
         id="stop949"
         offset="1"
         style="stop-color:#ffa154;stop-opacity:0;" />
    </linearGradient>
    <linearGradient
       gradientTransform="matrix(0,1,-0.72727273,0,16.727273,2)"
       spreadMethod="reflect"
       gradientUnits="userSpaceOnUse"
       y2="1"
       x2="3.6243253"
       y1="12"
       x1="3.6243253"
       id="linearGradient989"
       xlink:href="#linearGradient987" />
    <linearGradient
       spreadMethod="reflect"
       y2="1.9565217"
       x2="3.5515943"
       y1="12"
       x1="3.5515943"
       gradientTransform="matrix(0,1,-0.7965368,0,17.558441,11)"
       gradientUnits="userSpaceOnUse"
       id="linearGradient1065"
       xlink:href="#linearGradient951" />
    <linearGradient
       gradientTransform="matrix(0,1,-0.72727273,0,16.727273,11)"
       spreadMethod="reflect"
       gradientUnits="userSpaceOnUse"
       y2="1"
       x2="3.6243253"
       y1="12"
       x1="3.6243253"
       id="linearGradient989-5"
       xlink:href="#linearGradient987" />
  </defs>
  <linearGradient
     id="a"
     gradientTransform="matrix(0.48571543,0,0,0.45629666,-34.78968,-5.734851)"
     gradientUnits="userSpaceOnUse"
     x1="25.132275"
     x2="25.132275"
     y1="0.98520601"
     y2="47.013336">
    <stop
       offset="0"
       stop-color="#f4f4f4"
       id="stop2" />
    <stop
       offset="1"
       stop-color="#dbdbdb"
       id="stop4" />
  </linearGradient>
  <linearGradient
     id="b"
     gradientTransform="matrix(0.25378586,0,0,0.30501865,-43.521986,-5.539135)"
     gradientUnits="userSpaceOnUse"
     x1="-51.786404"
     x2="-51.786404"
     y1="50.786446"
     y2="2.9062469">
    <stop
       offset="0"
       stop-opacity=".339506"
       id="stop7" />
    <stop
       offset="1"
       stop-opacity=".246914"
       id="stop9" />
  </linearGradient>
  <linearGradient
     id="c"
     gradientTransform="matrix(0.40540511,0,0,0.51351351,2.269687,-0.324319)"
     gradientUnits="userSpaceOnUse"
     x1="23.99999"
     x2="23.99999"
     y1="6.4736748"
     y2="41.526306">
    <stop
       offset="0"
       stop-color="#fff"
       id="stop12" />
    <stop
       offset=".05838298"
       stop-color="#fff"
       stop-opacity=".235294"
       id="stop14" />
    <stop
       offset="1"
       stop-color="#fff"
       stop-opacity=".156863"
       id="stop16" />
    <stop
       offset="1"
       stop-color="#fff"
       stop-opacity=".392157"
       id="stop18" />
  </linearGradient>
  <linearGradient
     id="d"
     gradientUnits="userSpaceOnUse"
     x1="-73.999916"
     x2="-73.999916"
     xlink:href="#b"
     y1="-208.00011"
     y2="-200.00011" />
  <linearGradient
     id="e"
     gradientUnits="userSpaceOnUse"
     x1="-71.16655"
     x2="-77.833214"
     xlink:href="#linearGradient1075"
     y1="-204.24527"
     y2="-204.24527"
     gradientTransform="matrix(0,-0.29999996,1.7999893,0,375.19778,-10.349961)" />
  <linearGradient
     id="f"
     gradientUnits="userSpaceOnUse"
     x1="-68.497314"
     x2="-80.208771"
     xlink:href="#linearGradient874"
     y1="-203.99998"
     y2="-203.99998"
     gradientTransform="matrix(0,-0.41666667,1.5714286,0,328.57142,-19.041616)" />
  <linearGradient
     id="g"
     gradientUnits="userSpaceOnUse"
     x1="-479.99991"
     x2="-479.99991"
     xlink:href="#b"
     y1="128.99989"
     y2="136.99989" />
  <linearGradient
     id="h"
     gradientUnits="userSpaceOnUse"
     x1="-475.99991"
     x2="-475.99991"
     xlink:href="#linearGradient874"
     y1="136.99989"
     y2="128.99989"
     gradientTransform="matrix(1,0,0,-1,491,143.99614)" />
  <linearGradient
     id="i"
     gradientUnits="userSpaceOnUse"
     x1="-478.99991"
     x2="-478.99991"
     xlink:href="#c"
     y1="134.99989"
     y2="130.99989"
     gradientTransform="matrix(1,0,0,-1,491,143.99614)" />
  <linearGradient
     id="j">
    <stop
       offset="0"
       stop-color="#ce5c00"
       id="stop27" />
    <stop
       offset="1"
       stop-color="#ce5c00"
       stop-opacity="0"
       id="stop29" />
  </linearGradient>
  <linearGradient
     id="k"
     gradientTransform="rotate(180,197.99995,490.5)"
     gradientUnits="userSpaceOnUse"
     x1="187.60938"
     x2="186.93732"
     xlink:href="#j"
     y1="489.35938"
     y2="489.35938" />
  <linearGradient
     id="l">
    <stop
       offset="0"
       stop-color="#fcaf3e"
       id="stop33" />
    <stop
       offset="1"
       stop-color="#fcaf3e"
       stop-opacity="0"
       id="stop35" />
  </linearGradient>
  <linearGradient
     id="m"
     gradientTransform="rotate(180,197.99995,490.5)"
     gradientUnits="userSpaceOnUse"
     x1="187.81554"
     x2="187.1716"
     xlink:href="#l"
     y1="489.54688"
     y2="489.54688" />
  <linearGradient
     id="n"
     gradientUnits="userSpaceOnUse"
     x1="187.60938"
     x2="186.93732"
     xlink:href="#j"
     y1="489.35938"
     y2="489.35938" />
  <linearGradient
     id="o"
     gradientUnits="userSpaceOnUse"
     x1="187.81554"
     x2="187.1716"
     xlink:href="#l"
     y1="489.54688"
     y2="489.54688" />
  <path
     d="m 2.5,14.5 v -5 h 11 v 5 z"
     stroke-miterlimit="3"
     id="path41"
     style="fill:#555761;stroke:none;stroke-width:1;stroke-linejoin:round;stroke-miterlimit:3;fill-opacity:0.93333334;opacity:0.1" />
  <path
     id="path914"
     d="M 2.5 9 A 0.50005 0.50005 0 0 0 2 9.5 L 2 14.5 A 0.50005 0.50005 0 0 0 2.5 15 L 13.5 15 A 0.50005 0.50005 0 0 0 14 14.5 L 14 9.5 A 0.50005 0.50005 0 0 0 13.5 9 L 2.5 9 z M 3 10 L 13 10 L 13 14 L 3 14 L 3 10 z "
     style="color:#000000;font-style:normal;font-variant:normal;font-weight:normal;font-stretch:normal;font-size:medium;line-height:normal;font-family:sans-serif;font-variant-ligatures:normal;font-variant-position:normal;font-variant-caps:normal;font-variant-numeric:normal;font-variant-alternates:normal;font-variant-east-asian:normal;font-feature-settings:normal;font-variation-settings:normal;text-indent:0;text-align:start;text-decoration:none;text-decoration-line:none;text-decoration-style:solid;text-decoration-color:#000000;letter-spacing:normal;word-spacing:normal;text-transform:none;writing-mode:lr-tb;direction:ltr;text-orientation:mixed;dominant-baseline:auto;baseline-shift:baseline;text-anchor:start;white-space:normal;shape-padding:0;shape-margin:0;inline-size:0;clip-rule:nonzero;display:inline;overflow:visible;visibility:visible;isolation:auto;mix-blend-mode:normal;color-interpolation:sRGB;color-interpolation-filters:linearRGB;solid-color:#000000;solid-opacity:1;vector-effect:none;fill:#555761;fill-opacity:1;fill-rule:nonzero;stroke:none;stroke-width:1;stroke-linecap:butt;stroke-linejoin:round;stroke-miterlimit:3;stroke-dasharray:none;stroke-dashoffset:0;stroke-opacity:1;color-rendering:auto;image-rendering:auto;shape-rendering:auto;text-rendering:auto;enable-background:accumulate;stop-color:#000000;stop-opacity:1;opacity:1" />
  <path
     d="m 3.5,5.5 v -5 h 9 v 5 z"
     stroke-miterlimit="3"
     id="path41-0"
     style="fill:#555761;stroke:none;stroke-width:0.99999994;stroke-linejoin:round;stroke-miterlimit:3;fill-opacity:0.93333334;opacity:0.1" />
  <path
     id="path918"
     d="M 3.5 0 A 0.50005 0.50005 0 0 0 3 0.5 L 3 5.5 A 0.50005 0.50005 0 0 0 3.5 6 L 12.5 6 A 0.50005 0.50005 0 0 0 13 5.5 L 13 0.5 A 0.50005 0.50005 0 0 0 12.5 0 L 3.5 0 z M 4 1 L 12 1 L 12 5 L 4 5 L 4 1 z "
     style="color:#000000;font-style:normal;font-variant:normal;font-weight:normal;font-stretch:normal;font-size:medium;line-height:normal;font-family:sans-serif;font-variant-ligatures:normal;font-variant-position:normal;font-variant-caps:normal;font-variant-numeric:normal;font-variant-alternates:normal;font-variant-east-asian:normal;font-feature-settings:normal;font-variation-settings:normal;text-indent:0;text-align:start;text-decoration:none;text-decoration-line:none;text-decoration-style:solid;text-decoration-color:#000000;letter-spacing:normal;word-spacing:normal;text-transform:none;writing-mode:lr-tb;direction:ltr;text-orientation:mixed;dominant-baseline:auto;baseline-shift:baseline;text-anchor:start;white-space:normal;shape-padding:0;shape-margin:0;inline-size:0;clip-rule:nonzero;display:inline;overflow:visible;visibility:visible;isolation:auto;mix-blend-mode:normal;color-interpolation:sRGB;color-interpolation-filters:linearRGB;solid-color:#000000;solid-opacity:1;vector-effect:none;fill:#555761;fill-opacity:1;fill-rule:nonzero;stroke:none;stroke-width:1;stroke-linecap:butt;stroke-linejoin:round;stroke-miterlimit:3;stroke-dasharray:none;stroke-dashoffset:0;stroke-opacity:1;color-rendering:auto;image-rendering:auto;shape-rendering:auto;text-rendering:auto;enable-background:accumulate;stop-color:#000000;stop-opacity:1;opacity:1" />
  <path
     id="rect935"
     d="m 16,4.5 v 2 H 0 v -2 z"
     style="opacity:1;vector-effect:none;fill:#555761;fill-opacity:1;stroke:none;stroke-width:1;stroke-linecap:butt;stroke-linejoin:miter;stroke-miterlimit:4;stroke-dasharray:none;stroke-dashoffset:0;stroke-opacity:1;marker:none;paint-order:normal" />
  <path
     id="rect935-6"
     d="m 16,13.5 v 2 H 0 v -2 z"
     style="opacity:1;vector-effect:none;fill:#555761;fill-opacity:1;stroke:none;stroke-width:1;stroke-linecap:butt;stroke-linejoin:miter;stroke-miterlimit:4;stroke-dasharray:none;stroke-dashoffset:0;stroke-opacity:1;marker:none;paint-order:normal" />
</svg>

<svg
        xmlns='http://www.w3.org/2000/svg'
        xmlns:svg='http://www.w3.org/2000/svg'
        width='16'
        height='16'>
  <path
          opacity='1'
          fill='url(#gpa:foreground) #555761'
          fill-opacity='0.1'
          fill-rule='nonzero'
          stroke-miterlimit='3'
          d='M 2.5 14.5 L 2.5 9.5 L 13.5 9.5 L 13.5 14.5 Z'
          class="foreground">
  </path>
  <path
          color='rgb(0,0,0)'
          fill='url(#gpa:foreground) #555761'
          fill-opacity='1'
          fill-rule='nonzero'
          shape-rendering='auto'
          image-rendering='auto'
          d='M 2.5 9 A 0.50005 0.50005 0 0 0 2 9.5 L 2 14.5 A 0.50005 0.50005 0 0 0 2.5 15 L 13.5 15 A 0.50005 0.50005 0 0 0 14 14.5 L 14 9.5 A 0.50005 0.50005 0 0 0 13.5 9 L 2.5 9 Z M 3 10 L 13 10 L 13 14 L 3 14 L 3 10 Z'
          class="foreground"
          style='mix-blend-mode: normal; isolation: auto'>
  </path>
  <path
          opacity='1'
          fill='url(#gpa:foreground) #555761'
          fill-opacity='0.1'
          fill-rule='nonzero'
          stroke-miterlimit='3'
          d='M 3.5 5.5 L 3.5 0.5 L 12.5 0.5 L 12.5 5.5 Z'
          class="foreground">
  </path>
  <path
          color='rgb(0,0,0)'
          fill='url(#gpa:foreground) #555761'
          fill-opacity='1'
          fill-rule='nonzero'
          shape-rendering='auto'
          image-rendering='auto'
          d='M 3.5 0 A 0.50005 0.50005 0 0 0 3 0.5 L 3 5.5 A 0.50005 0.50005 0 0 0 3.5 6 L 12.5 6 A 0.50005 0.50005 0 0 0 13 5.5 L 13 0.5 A 0.50005 0.50005 0 0 0 12.5 0 L 3.5 0 Z M 4 1 L 12 1 L 12 5 L 4 5 L 4 1 Z'
          class="foreground"
          style='mix-blend-mode: normal; isolation: auto'>
  </path>
  <path
          fill='url(#gpa:foreground) #555761'
          fill-opacity='1'
          fill-rule='nonzero'
          paint-order='normal'
          d='M 16 4.5 L 16 6.5 L 0 6.5 L 0 4.5 Z'
          class="foreground">
  </path>
  <path
          fill='url(#gpa:foreground) #555761'
          fill-opacity='1'
          fill-rule='nonzero'
          paint-order='normal'
          d='M 16 13.5 L 16 15.5 L 0 15.5 L 0 13.5 Z'
          class="foreground">
  </path>
</svg>
